X:1
T:Title
%%score ( 1 2 ) { ( 3 5 ) | ( 4 6 ) }
L:1/8
M:2/4
K:E
V:1 treble nm="Akkordion"
V:2 treble 
V:3 bass nm="Grand Piano"
V:5 bass 
V:4 bass 
V:6 bass 
V:1
 z2 z[Q:1/4=62] E | EE/E/ EE/E/ | FF FF/F/ | FE/E/ EE | E3 E/E/ | FA/A/ BA/F/ | FE EE | %7
 F/A/A A(3B/A/F/ | FE EE | EE GF | E3 E/E/ | E/G/G/G/ G/B/B/B/ | BA AA | G/B/B BA/F/ | FE E2 | %15
 E/E/E E>E | F/F/F F>F | FE/E/ E>E |[M:9/16] DD/D/E-E/E/E/ |[M:2/4] E/>G/B/>A/ .G2 | z E/E/ EE/E/ | %21
 A/>B/c/>B/ .A2 | z A/A/ Ac/e/ |[M:23/32] e/c/A/B/4-B/4-B/-<B/ z/4 z/4 z/4 z/4 z/4 z/4 z/ G3/4 | %24
[M:3/8] A3 |] %25
V:2
 x4 | x4 | x4 | x4 | x4 | x4 | x4 | x4 | x4 | x4 | x4 | x4 | x4 | x4 | x4 | x4 | x4 | x4 | %18
[M:9/16] x9/2 |[M:2/4] x4 | x4 | x4 | x4 | %23
[M:23/32] z/4 z/4 z/4 z/4 z/4 z/4 z/4 z/4 z/4 z/4 z/ F/4-F/4-F/4-F/4-F/4-F/4-F/-<F/ z/4 | %24
[M:3/8] x3 |] %25
V:3
 z4 | z E EE | z[K:treble] F FF | E,E E,E | z E EE | z[K:treble] F FF | z E EE | z[K:treble] F FF | %8
 z E EE | [G,B,E]2 [A,CD]2 | [E,G,B,E]4 | z/ B,/[K:treble]G/B,/ G/B,/G/[K:bass]B,/ | %12
 z[K:treble] A .A2 | z/ B,/[K:treble]G/B,/[K:bass] z/ B,/[K:treble]F/B,/ | z E .E2 | z E EE | %16
 z[K:treble] F FF | z E .E2 |[M:9/16] [G,A,D]->[G,A,D][K:treble][G,B,E]-[G,B,E]/ z/ z/ | %19
[M:2/4] G2 G2 | G2 G2 | A2 A2 | A2 A2 | %23
[M:23/32] z/4 z/4 z/4 z/4 z/4 z/4 z/4 z/4 z/4 z/4 z/ [FB]/4-[FB]/4-[FB]/4-[FB]/4-[FB]/4-[FB]/4-[FB]/-<[FB]/ z/4 | %24
[M:3/8] [CEA]3 |] %25
V:4
 z4 | z [A,C] [A,C][A,C] | z [A,=D] [A,D][A,D] | E,,[A,C] E,,[B,=D] | z [A,C] [A,C][A,C] | %5
 z [B,=D] [A,D][A,D] | z [A,C] [A,C][A,C] | z [A,=D] [A,D][A,D] | z [A,C] [A,C][A,C] | %9
 .[B,,,B,,]2 .[B,,,B,,]2 | E,,4 | z .E .E.E | z [CE] .[CE]2 | E,,.E B,,,.D | z [G,B,] .[G,B,]2 | %15
 z [A,C] [A,C][A,C] | z [A,=D] [A,D][A,D] | z [A,C] .[A,C]2 | %18
[M:9/16] [B,,,B,,]->[B,,,B,,][E,,E,]-[E,,E,]/ z/ z/ |[M:2/4] [E,B,E]2 [E,B,E]2 | %20
 [E,=DE]2 [=D,DE]2 | [A,CE]2 [A,CE]2 | [A,CE]2 [A,CE]2 | %23
[M:23/32] [C,,C,]/4-[C,,C,]/4-[C,,C,]/4-[C,,C,]/4-[C,,C,]/4-[C,,C,]/4-[C,,C,]/4-[C,,C,]/4-[C,,C,]/-<[C,,C,]/=D/4-D/4-D/4-D/4-D/-<D/[E,D]3/4 | %24
[M:3/8] [A,,A,]3 |] %25
V:5
 x4 | A,,4 | =D,4[K:treble] | x4 | A,,4 | =D,4[K:treble] | A,,4 | =D,4[K:treble] | A,,4 | x4 | x4 | %11
 E,4[K:treble][K:bass] | A,,4[K:treble] | .E,2[K:treble][K:bass] .B,,2[K:treble] | E,4 | A,,4 | %16
 =D,4[K:treble] | E,4 |[M:9/16] x2[K:treble] x5/2 |[M:2/4] x4 | x4 | x4 | x4 | %23
[M:23/32] [EAe]/4-[EAe]/4-[EAe]/4-[EAe]/4-[EAe]/4-[EAe]/4-[EAe]/4-[EAe]/4-[EAe]/-<[EAe]/ z/4 z/4 z/4 z/4 z/4 z/4 z/ [EG]3/4 | %24
[M:3/8] x3 |] %25
V:6
 x4 | A,,,4 | =D,,4 | x4 | A,,,4 | =D,,4 | A,,,4 | =D,,4 | A,,,4 | x4 | x4 | E,,4 | A,,,4 | x4 | %14
 E,,4 | A,,,4 | =D,,4 | E,,4 |[M:9/16] x9/2 |[M:2/4] x4 | x4 | x4 | x4 | %23
[M:23/32] z/4 z/4 z/4 z/4 z/4 z/4 z/4 z/4 z/4 z/4 z/ =D,/4-D,/4-D,/4-D,/4-D,/4-D,/4-D,/-<D,/ z/4 | %24
[M:3/8] x3 |] %25

